X:1
T:Kildrummy Castle [1]
T:Kildrummy Castle [1]
T:Alexander Walker
C:Alexander Walker
L:1/8
M:4/4
K:Bmin
V:1 treble 
V:1
 C | (D>F) (F3/2E/4)(D/4 F)B B2 | A>F (E/F/E/D/) (C>A,) A,>(B,C/) | %3
 (D>F) F3/2(E/4D/4) (FB) B(A/^G/) | A>F (F/E/)D/C/ (B,2 B,) :| (D/C/) | (B,B)B>A B<FF>E | %7
 F>AE>F (CE) (D/C/)B,/A,/ | ([B,F]B)B>A (BF/4) x2 F/E/ | A>F (F/E/)D/C/ (B,2 B,)(D/C/) | %10
 (B,<B)B>A B<FF>E | F>AE>F (CE) (D/C/)B,/A,/ | B,>CD>E F>E(F<B) | dB (f/e/)d/c/ (B2 B) || f | %15
 b>Bdf Bb f/e/d/c/ | [ca]Ace Aa (f/e/)d/c/ | bBdf Bb f/e/d/c/ |{g} af/a/ f/e/d/c/{c} (B2 B)f | %19
 b>Bdf Bb f/e/d/c/ | [ca]Ace Aa (f/e/)d/c/ | B>b g>b f>aef |{e} (d/c/)d/e/ (f/e/)d/c/ (B2 B) || %23
 B/c/ | d>B B,B F>B (F/E/)D/C/ | A>ECE A,E (D/C/)B,/A,/ | d>B B,B FB F/E/D/C/ | %27
 A>F (F/E/)D/C/ (B,2 B,)B/c/ | d>B B,B F>B (F/E/)D/C/ | A>ECE A,E (D/C/)B,/A,/ | B,>D(CE) D>E(FB) | %31
 A>(F F/)E/D/C/ (B,2 !fermata!B,) || %32

